X:1
T:Title
%%score { ( 1 3 ) | 2 }
L:1/8
M:4/4
K:Ab
V:1 treble nm="Grand Piano"
V:3 treble 
V:2 bass 
V:1
 z4 z2[Q:1/4=92] [CA]>[DB] | [Ec]>[Ec] [Ec]>[DB] [CA]2 [EA]>[EA] | %2
[M:3/4] [DF]>[FA] [FA]>[DF] [CE]2 |[M:1/4] [CE]>[CE] | %4
[M:4/4] [CEA]>[CEA] [CEA]>[CAB] [EAc]>[EAc] [EB]>[=DFA] |[M:3/4] [GB]6 |[M:1/4] [EA]>[EGB] | %7
[M:4/4] [EAc]>[EAc] [EAc]>[DEB] [CEA]2 [A,EA]>[A,EA] | %8
 [A,DF]>[DFA] [DFA]>[A,DF] [A,CE]2 [A,CE]>[A,CE] | [CEA]<[CEA] [EA]>[EAB] [EAc]2 [DGB]>[DGB] | %10
 [CA]6 z2 | c<c c>B A2 [EB]>[EA] | F4 z4 | E<A A>A A2 B>c |[M:3/4] [GB]6 |[M:1/4] [EA]>[EGB] | %16
[M:4/4] [EAc]>[EAc] [EAc]>[DEB] [CEA]2 [A,EA]>[A,EA] | %17
 [A,DF]>[DFA] [DFA]>[A,DF] [A,CE]2 [A,CE]>[A,CE] | [CEA]<[CEA] [EA]>[EAB] [EAc]2 [DGB]>[DGB] | %19
[M:8/4] [CA]8 z8 |] %20
V:2
 z4 z2 [A,,A,]>[A,,A,] | [A,,A,]>[A,,A,] [A,,A,]>[A,,A,] [A,,E,]2 [C,A,]>[C,A,] | %2
[M:3/4] [D,A,]>[D,D] [D,D]>[D,A,] [A,,A,]2 |[M:1/4] [A,,A,]>[A,,A,] | %4
[M:4/4] A,,>A,, A,,>A,, A,>A, G,>F, |[M:3/4] E,2 E,>E, E,D, |[M:1/4] C,>B,, | %7
[M:4/4] A,,>A, A,>A, A,2 C,>C, | D,>D, D,>D, A,,2 A,,>A,, | A,<A, C,>D, E,2 E,>E, | A,,6 z2 | %11
 [A,EA]<[A,EA] [A,EA]>[A,DE] [A,CE]2[K:bass] [C,A,]>[C,A,] | [D,A,D]2 [D,A,]>[D,A,] [D,A,]2 z2 | %13
 [A,C]<[A,CE] [A,CE]>[A,CE] [F,CF]2 [F,=DF]>[B,DA] |[M:3/4][K:bass] [E,E]2 E,>E, E,D, | %15
[M:1/4] C,>B,, |[M:4/4] A,,>A, A,>A, A,2 C,>C, | D,>D, D,>D, A,,2 A,,>A,, | A,<A, C,>D, E,2 E,>E, | %19
[M:8/4] A,,8 z8 |] %20
V:3
 x8 | x8 |[M:3/4] x6 |[M:1/4] x2 |[M:4/4] x8 |[M:3/4] E2 E>E E2 |[M:1/4] x2 |[M:4/4] x8 | x8 | x8 | %10
 x8 | x8 | z2 D>D [FA]2 z2 | x8 |[M:3/4] z2 E>E E2 |[M:1/4] x2 |[M:4/4] x8 | x8 | x8 | %19
[M:8/4] x16 |] %20

